X: 19533
T: James Betagh
R: reel
M: 4/4
K: Gdorian
G2d2cBAB|GABc d2F2|B2AB G2g2|fg a2{g}f2d2|
d'c'ba bc'd'b|c'2c'2c'2bc'|d'c'd'b c'bc'a|d'2g2{g}f2dc|
BABG d2d2|c2c2c2de|f2f2fgfe|fgfe f2ef|
g2g2gagf|gagf g2ga|b2dc B2ab|
c'2{c'}ag f2d'2|c'bag {g}fdfc|d2g2{a}g4||
d2c2B2A2|G^FGA BABG|AGAB cBcA|dcBA B2{B}A2|
G2Bg G2Bg|FGAf FGAf|d2dc B2AB|cBAG F2D2|
G2GA B2c2|dcde fefd|g^fga baga|{g}f2d2d4|
f2fa f2fa|Tg2f2d2cB|ABAG FDFC|D2G2G4||
"Jig"[M:6/8]A "Vivace"|B2G g2G|{B}A2F cAF|GBG d3|DFD B3|
FAF d2c|{c}BAB G2f|g2a b2a|f3d2c|
def fgf|g2a b2a|g2d' {b}a2c'|bag ^f3|
gdc BAG|F2D B2G|F2d {B}A2c|BAG G2||
B/c/|d2d dBd|dBd def|g2g gdg|gdg bag|
{g}f2f fBf|fBf {f}g2f|d2c BAG|{G}^F3{c}d3|
DFD BAB|FAF cBc|GBG dcd|{d}c2B {B}A2F|
GBG g3|AcA {e}f3|g2d cBA|A^FD G2||

